X:7956
T:Jig
M:6/8
L:1/8
R:jig
A:Kilkenny
K:D
EFA BcB|BAF d3|EFA BcB|BAF AFD|
EFA BcB|BAF d2 e|f2 e d2 B|BAF AFG:|
|:E2 e e3|BAF d3|E2 e e3|BAF AFD|
  E2 e e3|BAF d2 e|f2 e d2 B|BAF AFE:|
|:f2 e d2 B|BAF d3|f2 e d2 B|BAF AFD|
  f2 e d2 B|BAF d2 e|fed edB|BAF AFE:|
